svgs/light/newspaper.svg

<svg xmlns="http://www.w3.org/2000/svg" viewBox="0 0 512 512"><!-- Font Awesome Pro 6.0.0-alpha2 by @fontawesome - https://fontawesome.com License - https://fontawesome.com/license (Commercial License) --><path d="M464 32H144C117.531 32 96 53.531 96 80V416C96 433.656 81.641 448 64 448S32 433.656 32 416V112C32 103.156 24.844 96 16 96S0 103.156 0 112V416C0 451.281 28.703 480 64 480H432C476.109 480 512 444.125 512 400V80C512 53.531 490.469 32 464 32ZM480 400C480 426.469 458.469 448 432 448H119.406C124.875 438.594 128 427.656 128 416V80C128 71.188 135.172 64 144 64H464C472.828 64 480 71.188 480 80V400ZM272 304H176C167.156 304 160 311.156 160 320S167.156 336 176 336H272C280.844 336 288 328.844 288 320S280.844 304 272 304ZM432 304H336C327.156 304 320 311.156 320 320S327.156 336 336 336H432C440.844 336 448 328.844 448 320S440.844 304 432 304ZM272 368H176C167.156 368 160 375.156 160 384S167.156 400 176 400H272C280.844 400 288 392.844 288 384S280.844 368 272 368ZM432 368H336C327.156 368 320 375.156 320 384S327.156 400 336 400H432C440.844 400 448 392.844 448 384S440.844 368 432 368ZM416 96H192C174.326 96 160 110.328 160 128V224C160 241.672 174.326 256 192 256H416C433.674 256 448 241.672 448 224V128C448 110.328 433.674 96 416 96ZM416 224H192V128H416V224Z"/></svg>

<svg xmlns="http://www.w3.org/2000/svg" viewBox="0 0 512 512"><!--! Font Awesome Pro 6.3.0 by @fontawesome - https://fontawesome.com License - https://fontawesome.com/license (Commercial License) Copyright 2023 Fonticons, Inc. --><path d="M464 32h-320C117.5 32 96 53.53 96 80V416c0 17.66-14.36 32-32 32s-32-14.34-32-32V112C32 103.2 24.84 96 16 96S0 103.2 0 112V416c0 35.28 28.7 64 64 64h368c44.11 0 80-35.88 80-80v-320C512 53.53 490.5 32 464 32zM480 400c0 26.47-21.53 48-48 48H119.4C124.9 438.6 128 427.7 128 416V80C128 71.19 135.2 64 144 64h320C472.8 64 480 71.19 480 80V400zM272 304h-96C167.2 304 160 311.2 160 320s7.156 16 16 16h96c8.844 0 16-7.156 16-16S280.8 304 272 304zM432 304h-96C327.2 304 320 311.2 320 320s7.156 16 16 16h96c8.844 0 16-7.156 16-16S440.8 304 432 304zM272 368h-96C167.2 368 160 375.2 160 384s7.156 16 16 16h96c8.844 0 16-7.156 16-16S280.8 368 272 368zM432 368h-96c-8.844 0-16 7.156-16 16s7.156 16 16 16h96c8.844 0 16-7.156 16-16S440.8 368 432 368zM416 96H192C174.3 96 160 110.3 160 128v96c0 17.67 14.33 32 32 32h224c17.67 0 32-14.33 32-32V128C448 110.3 433.7 96 416 96zM416 224H192V128h224V224z"/></svg>
